X:1
T:James Gibb editions
T:In monte Oliveti - Naujalis
T:#
%%score [ 1 2 3 4 ]
L:1/8
Q:1/4=90
M:4/4
K:Eb
V:1 treble nm="Soprano" snm="S"
V:2 treble nm="Alto" snm="A"
V:3 treble-8 nm="Tenor" snm="T"
V:4 bass nm="Bass" snm="B"
V:1
"^Jouzas Naujalis\n(1869-1934)""^In monte Oliveti"!p! G4 G4- | G2 G2 FD (E2- | E2 FE)"^," E2 C2 | %3
w: In mon\-|* te O- li- ve\-|* * * ti o-|
 A6 G2 | F2 (G2 E4 | D4)"^," D4 |!f! G4 C4 | (c2 BA) G4 | z2 (GA) B3 c | B2 B2 c4- | %10
w: ra- vit|ad Pa\- *|* trem:|Pa- ter,|Pa\- * * ter,|si * fi- e-|ri po- test,|
"^," c2 (cd) e3 e | e6 (ed) |"^," d4 f3 c | c2 f2 (e3 _d) | (c3 B A2 B2- | B2) A2 A2"^," G2 | %16
w: * si * fi- e-|ri po\- *|test, tran- se-|at a me *|ca\- * * *|* lix i- ste,|
 c2 (BA) G4 | !fermata!G8 ||S!p! G2 FG E3 F | A2 G2 F4 | B2 (AG) (G2 F2) | C2 D2 (E4- | E2 D2) D4 | %23
w: ca- lix * i-|ste.|Spi- ri- tum qui- dem|prom- ptus est,|ca- ro * au\- *|tem in- fir\-|* * ma,|
 (G2 c4) (BA) | (G2 e4)"^," dc | (=B4 c4- | c4 =B4) | !fermata!c8 |] G3 G G2 E2 | z2 AA A2 G2 | %30
w: ca\- * ro *|au\- * tem in-|fir\- *||ma.|Vi- gi- la- te|et o- ra- te|
 z2 B2 BBBB | BAAG (GF EF) |"^al fine" !fermata!G8 |] %33
w: ut non in- tre- tis|in ten- ta- ti- o\- * * *|nem.|
V:2
!p! (G2 F2) (E2 D2 | C2) =B,2 C2 C2 | C4"^," C2 C2 | (C2 D2) E4 | D2 (D4 CB, | =A,2 C2)"^," =B,4 | %6
w: In * mon\- *|* te O- li-|ve- ti o-|ra\- * vit|ad Pa\- * *|* * trem:|
!f!!f! G4 C4 | (c2 BA) G4 | z2 (EF) G3 G | (F4 =E2) (GF) |"^," =E2 c2 c3 B | (A2 G2 F2) A2 | %12
w: Pa- ter,|Pa\- * * ter,|si * fi- e-|ri * po- *|test, si fi- e-|ri * * po-|
"^," G4 A3 G | A2 A2 (A2 cB) | (A3 G F2) F2 | E4"^," E4 | E2 F2 (E2 FE) | !fermata!D8 || %18
w: test, tran- se-|at a me * *|ca\- * * lix|i- ste,|ca- lix i\- * *|ste.|
!p! E2 DE C3 D | E2 E2 D4 | D2 _D2 C4 | C2 C2 C4- | C4 =B,4 | C4 F4 | (E4 A4) |"^," G4 F4 | %26
w: Spi- ri- tum qui- dem|prom- ptus est,|ca- ro au-|tem in- fir\-|* ma,|ca- ro|au\- *|tem in-|
 (A4 G2 F2) | !fermata!E8 |] E3 E E2 C2 | z2 EF E2 E2 | z2 G2 GGGF | EEDD C4 | !fermata!=B,8 |] %33
w: fir\- * *|ma.|Vi- gi- la- te|et o- ra- te|ut non in- tre- tis|in ten- ta- ti- o-|nem.|
V:3
 z4!p! G4 | G2 G2 G2 G2 | A4"^," G2 C2 | (A4 B4) | B2 B2 (G4 | G2 ^F2)"^," G4 |!f! G4 C4 | %7
w: In|mon- te O- li-|ve- ti o-|ra\- *|vit ad Pa\-|* * trem:|Pa- ter,|
 (c2 BA) G4 | z4 z2 (Bc) | _d3 c B2 A2 | G2 z2 z2 (cd) | e3 d c2 c2 |"^," =B4 c3 c | c2 _d2 c4 | %14
w: Pa\- * * ter,|si *|fi- e- ri po-|test, si *|fi- e- ri po-|test, tran- se-|at a me,|
 e3 _d cA d2 | _d2 c2 c2"^," B2 | A2 c2 c4 | !fermata!=B8 ||!p! c2 cc G2 B2 | B2 B2 B4 | %20
w: tran- se- at a me|ca- lix i- ste,|ca- lix i-|ste.|Spi- ri- tum qui- dem|prom- ptus est,|
 F2 =E2 (E2 F2) | A2 A2 (G4 | ^F4) G4 | (G4 A2) B2 | B4"^," c2 f2 | (f2 e2 d2 c2 | e4 d4) | %27
w: ca- ro au\- *|tem in- fir\-|* ma,|ca\- * ro|au- tem in-|fir\- * * *||
 !fermata!c8 |] B3 B c2 G2 | z2 cc B2 B2 | z2 e2 eeed | ccBB A4 | !fermata!G8 |] %33
w: ma.|Vi- gi- la- te|et o- ra- te|ut non in- tre- tis|in ten- ta- ti- o-|nem.|
V:4
 z4!p! (G,2 F,2) | E,2 D,2 C,3 B,, | A,,4"^," C,2 C,2 | (F,4 E,4) | B,,2 B,,2 (C,4 | %5
w: In *|mon- te O- li-|ve- ti o-|ra\- *|vit ad Pa\-|
 D,4)"^," G,,4 |!f! G,4 C,4 | (C2 B,A,) G,4 | z4 z2 B,2 | B,3 A, G,2 F,2 | C,2 z2 z2 C,2 | %11
w: * trem:|Pa- ter,|Pa\- * * ter,|si|fi- e- ri po-|test, si|
 C3 B, A,2 F,2 |"^," G,4 F,3 =E, | F,2 _D,2 A,,4 | E,3 E, F,F, (F,G,) | A,2 A,2 E,2"^," E,2 | %16
w: fi- e- ri po-|test, tran- se-|at a me,|tran- se- at a me *|ca- lix i- ste,|
 A,2 F,2 G,4 | !fermata!G,,8 ||!p! C,2 C,C, C,2 B,,2 | E,2 G,2 B,4 | B,,2 B,,2 A,,4 | %21
w: ca- lix i-|ste.|Spi- ri- tum qui- dem|prom- ptus est,|ca- ro au-|
 F,2 F,2 (C,4 | D,4) (G,2 !courtesy!=F,2) | E,4 D,4 | (E,2 G,2)"^," F,4 | (G,4 A,4) | (F,4 G,4) | %27
w: tem in- fir\-|* ma, *|ca- ro|au\- * tem|in\- *|fir\- *|
 !fermata![C,G,]8 |] E,3 D, C,2 C,2 | z2 C,D, E,2 E,2 | z8 | z8 | !fermata!z8 |] %33
w: ma.|Vi- gi- la- te|et o- ra- ~te.||||

